X:723
T:Reel 723
M:4/4
K:Dmaj
L:1/8
E|FADE FGAd|eAdA eAce|fddc dfed|cAAG FDDE|FDFA d2dc|BAGA BEEG|FDFA defg|afge fdd2|Addc dfag|eAAg edcB|Addc dfed|cAGE FDDg|afdf gfed|cAAf gAfg|afge fded|cABG FDD2|
